X:1
T: The Great Eastern
C:
R:Reel
Q: 232
K:D
M:4/4
L:1/8
|:A,2|D2 FE DF Ac|dc df ec AF|GB EG FA DF|GF ED CE A,C|
D2 FE DF Ac|dc df ec AF|GB EG FA DF|ED CE D2:|
|:A,2|A,B, CD EF GE|FD EF GA Bc|dc dA cd ef|gf ge dc BA|
de fd ce Ac|dc dB AF DF|GB DG FA DF|ED CE D2:|
